svg/folder_marker.svg

<svg xmlns="http://www.w3.org/2000/svg" viewBox="0 0 24 24"><path d="m10 4 2 2h8a2 2 0 0 1 2 2v3.34c-.96-.84-2.18-1.34-3.5-1.34-3 0-5.5 2.65-5.5 5.5 0 1.47.65 3.05 1.5 4.5H4a2 2 0 0 1-2-2V6c0-1.11.89-2 2-2zm8.5 8c1.9 0 3.5 1.6 3.5 3.5 0 2.6-3.5 6.5-3.5 6.5S15 18.1 15 15.5c0-1.9 1.6-3.5 3.5-3.5m0 4.8c.7 0 1.3-.6 1.2-1.2 0-.6-.6-1.2-1.2-1.2s-1.2.5-1.2 1.2c0 .6.5 1.2 1.2 1.2"/></svg>

<?xml version="1.0" encoding="UTF-8"?><!DOCTYPE svg PUBLIC "-//W3C//DTD SVG 1.1//EN" "http://www.w3.org/Graphics/SVG/1.1/DTD/svg11.dtd"><svg xmlns="http://www.w3.org/2000/svg" xmlns:xlink="http://www.w3.org/1999/xlink" version="1.1" id="mdi-folder-marker" width="24" height="24" viewBox="0 0 24 24"><path d="M10 4L12 6H20C21.1 6 22 6.89 22 8V11.34C21.04 10.5 19.82 10 18.5 10C15.5 10 13 12.65 13 15.5C13 16.97 13.65 18.55 14.5 20H4C2.89 20 2 19.1 2 18L2 6C2 4.89 2.89 4 4 4H10M18.5 12C20.4 12 22 13.6 22 15.5C22 18.1 18.5 22 18.5 22C18.5 22 15 18.1 15 15.5C15 13.6 16.6 12 18.5 12M18.5 16.8C19.2 16.8 19.8 16.2 19.7 15.6C19.7 15 19.1 14.4 18.5 14.4C17.9 14.4 17.3 14.9 17.3 15.6C17.3 16.2 17.8 16.8 18.5 16.8Z" /></svg>
